Project/SVG/fluent_u1f381.svg

<svg fill="none" height="32" viewBox="0 0 32 32" width="32" xmlns="http://www.w3.org/2000/svg" xmlns:xlink="http://www.w3.org/1999/xlink"><filter id="a" color-interpolation-filters="sRGB" filterUnits="userSpaceOnUse" height="6.29556" width="11.2407" x="16.0593" y="2.04623"><feFlood flood-opacity="0" result="BackgroundImageFix"/><feBlend in="SourceGraphic" in2="BackgroundImageFix" mode="normal" result="shape"/><feColorMatrix in="SourceAlpha" result="hardAlpha" type="matrix" values="0 0 0 0 0 0 0 0 0 0 0 0 0 0 0 0 0 0 127 0"/><feOffset dx=".3" dy=".3"/><feGaussianBlur stdDeviation=".375"/><feComposite in2="hardAlpha" k2="-1" k3="1" operator="arithmetic"/><feColorMatrix type="matrix" values="0 0 0 0 0.698039 0 0 0 0 0.235294 0 0 0 0 0.243137 0 0 0 1 0"/><feBlend in2="shape" mode="normal" result="effect1_innerShadow_18_1284"/></filter><filter id="b" color-interpolation-filters="sRGB" filterUnits="userSpaceOnUse" height="6.29556" width="11.4407" x="5.11865" y="1.74623"><feFlood flood-opacity="0" result="BackgroundImageFix"/><feBlend in="SourceGraphic" in2="BackgroundImageFix" mode="normal" result="shape"/><feColorMatrix in="SourceAlpha" result="hardAlpha" type="matrix" values="0 0 0 0 0 0 0 0 0 0 0 0 0 0 0 0 0 0 127 0"/><feOffset dx=".5" dy="-.3"/><feGaussianBlur stdDeviation=".375"/><feComposite in2="hardAlpha" k2="-1" k3="1" operator="arithmetic"/><feColorMatrix type="matrix" values="0 0 0 0 0.698039 0 0 0 0 0.235294 0 0 0 0 0.243137 0 0 0 1 0"/><feBlend in2="shape" mode="normal" result="effect1_innerShadow_18_1284"/></filter><filter id="c" color-interpolation-filters="sRGB" filterUnits="userSpaceOnUse" height="27" width="6.4" x="12.8" y="3.04181"><feFlood flood-opacity="0" result="BackgroundImageFix"/><feBlend in="SourceGraphic" in2="BackgroundImageFix" mode="normal" result="shape"/><feColorMatrix in="SourceAlpha" result="hardAlpha" type="matrix" values="0 0 0 0 0 0 0 0 0 0 0 0 0 0 0 0 0 0 127 0"/><feOffset dx=".2"/><feGaussianBlur stdDeviation=".1"/><feComposite in2="hardAlpha" k2="-1" k3="1" operator="arithmetic"/><feColorMatrix type="matrix" values="0 0 0 0 0.729412 0 0 0 0 0.101961 0 0 0 0 0.152941 0 0 0 1 0"/><feBlend in2="shape" mode="normal" result="effect1_innerShadow_18_1284"/><feColorMatrix in="SourceAlpha" result="hardAlpha" type="matrix" values="0 0 0 0 0 0 0 0 0 0 0 0 0 0 0 0 0 0 127 0"/><feOffset dx="-.2"/><feGaussianBlur stdDeviation=".1"/><feComposite in2="hardAlpha" k2="-1" k3="1" operator="arithmetic"/><feColorMatrix type="matrix" values="0 0 0 0 0.894118 0 0 0 0 0.301961 0 0 0 0 0.341176 0 0 0 1 0"/><feBlend in2="effect1_innerShadow_18_1284" mode="normal" result="effect2_innerShadow_18_1284"/></filter><filter id="d" color-interpolation-filters="sRGB" filterUnits="userSpaceOnUse" height="5.59383" width="4.63898" x="22.7618" y="1.79175"><feFlood flood-opacity="0" result="BackgroundImageFix"/><feBlend in="SourceGraphic" in2="BackgroundImageFix" mode="normal" result="shape"/><feGaussianBlur result="effect1_foregroundBlur_18_1284" stdDeviation=".5"/></filter><filter id="e" color-interpolation-filters="sRGB" filterUnits="userSpaceOnUse" height="4.90036" width="5.47986" x="8.41821" y="1.62053"><feFlood flood-opacity="0" result="BackgroundImageFix"/><feBlend in="SourceGraphic" in2="BackgroundImageFix" mode="normal" result="shape"/><feGaussianBlur result="effect1_foregroundBlur_18_1284" stdDeviation=".5"/></filter><linearGradient id="f"><stop offset="0" stop-color="#ce280a"/><stop offset="1" stop-color="#ce280a" stop-opacity="0"/></linearGradient><linearGradient id="g" gradientUnits="userSpaceOnUse" x1="22.71" x2="22.71" xlink:href="#f" y1="8.52167" y2="6.66408"/><linearGradient id="h" gradientUnits="userSpaceOnUse" x1="12.3385" x2="10.589" y1="3.33591" y2="8.04179"><stop offset="0" stop-color="#df2332"/><stop offset="1" stop-color="#d9213b"/></linearGradient><linearGradient id="i" gradientUnits="userSpaceOnUse" x1="9.40867" x2="9.40867" xlink:href="#f" y1="8.52167" y2="6.66408"/><radialGradient id="j" cx="0" cy="0" gradientTransform="matrix(-2.55417743 -.28636148 .75318603 -6.71798014 13.5382 8.32817)" gradientUnits="userSpaceOnUse" r="1"><stop offset=".150943" stop-color="#bd1123"/><stop offset="1" stop-color="#bd1123" stop-opacity="0"/></radialGradient><linearGradient id="k" gradientUnits="userSpaceOnUse" x1="5" x2="27" y1="24.6043" y2="24.6043"><stop offset="0" stop-color="#f1a738"/><stop offset="1" stop-color="#fad42c"/></linearGradient><linearGradient id="l" gradientUnits="userSpaceOnUse" x1="16" x2="16" y1="13.0418" y2="16.2918"><stop offset="0" stop-color="#c97525"/><stop offset="1" stop-color="#c97525" stop-opacity="0"/></linearGradient><radialGradient id="m" cx="0" cy="0" gradientTransform="matrix(-2.375 0 0 -18.6875 13.6368 21.3543)" gradientUnits="userSpaceOnUse" r="1"><stop offset="0" stop-color="#c87c28"/><stop offset="1" stop-color="#c87c28" stop-opacity="0"/></radialGradient><linearGradient id="n" gradientUnits="userSpaceOnUse" x1="4.44933" x2="7.69933" y1="22.5418" y2="22.5418"><stop offset="0" stop-color="#c2773f"/><stop offset="1" stop-color="#c2773f" stop-opacity="0"/></linearGradient><linearGradient id="o" gradientUnits="userSpaceOnUse" x1="16.513" x2="16.513" y1="30.6605" y2="28.9594"><stop offset="0" stop-color="#e68370"/><stop offset="1" stop-color="#e68370" stop-opacity="0"/></linearGradient><linearGradient id="p" gradientUnits="userSpaceOnUse" x1="27.6993" x2="25.0118" y1="23.8543" y2="23.8543"><stop offset="0" stop-color="#fff733"/><stop offset="1" stop-color="#fff733" stop-opacity="0"/></linearGradient><linearGradient id="q" gradientUnits="userSpaceOnUse" x1="29" x2="3.00017" y1="12.0288" y2="11.9617"><stop offset="0" stop-color="#f6d729"/><stop offset="1" stop-color="#f39b3a"/></linearGradient><linearGradient id="r" gradientUnits="userSpaceOnUse" x1="29" x2="27.2726" y1="11.5418" y2="11.5418"><stop offset="0" stop-color="#fff850"/><stop offset="1" stop-color="#fff850" stop-opacity="0"/></linearGradient><linearGradient id="s" gradientUnits="userSpaceOnUse" x1="16" x2="16" y1="15.3605" y2="14.185"><stop offset="0" stop-color="#e8af21"/><stop offset="1" stop-color="#e8af21" stop-opacity="0"/></linearGradient><radialGradient id="t" cx="0" cy="0" gradientTransform="matrix(0 -1.82412 13.1049 0 6.15282 15.7659)" gradientUnits="userSpaceOnUse" r="1"><stop offset="0" stop-color="#de7550"/><stop offset="1" stop-color="#de7550" stop-opacity="0"/></radialGradient><linearGradient id="u" gradientUnits="userSpaceOnUse" x1="2.71922" x2="5.03107" y1="11.9646" y2="11.9646"><stop offset="0" stop-color="#be7841"/><stop offset="1" stop-color="#be7841" stop-opacity="0"/></linearGradient><radialGradient id="v" cx="0" cy="0" gradientTransform="matrix(-2.53125 0 0 -17.5312 13.9493 12.5731)" gradientUnits="userSpaceOnUse" r="1"><stop offset=".188888" stop-color="#c57e10"/><stop offset="1" stop-color="#c57e10" stop-opacity="0"/></radialGradient><linearGradient id="w" gradientUnits="userSpaceOnUse" x1="16.0078" x2="16.0078" y1="3.04362" y2="30.0406"><stop offset="0" stop-color="#d12136"/><stop offset="1" stop-color="#b6246e"/></linearGradient><linearGradient id="x" gradientUnits="userSpaceOnUse" x1="16" x2="16" y1="30.297" y2="28.8527"><stop offset="0" stop-color="#b3368c"/><stop offset="1" stop-color="#b3368c" stop-opacity="0"/></linearGradient><g filter="url(#a)"><path d="m16.0593 8.04179h8.7985c1.1857-.01001 2.1422-.97125 2.1422-2.15277 0-3.38435-4.0453-5.106565-6.4665-2.76355l-4.4742 4.33814z" fill="#de2236"/><path d="m16.0593 8.04179h8.7985c1.1857-.01001 2.1422-.97125 2.1422-2.15277 0-3.38435-4.0453-5.106565-6.4665-2.76355l-4.4742 4.33814z" fill="url(#g)"/></g><g filter="url(#b)"><path d="m16.0593 8.04179h-8.79847c-1.18568-.01001-2.14219-.97125-2.14219-2.15277 0-3.38435 4.0453-5.106565 6.46646-2.76355l4.4742 4.33814z" fill="url(#h)"/><path d="m16.0593 8.04179h-8.79847c-1.18568-.01001-2.14219-.97125-2.14219-2.15277 0-3.38435 4.0453-5.106565 6.46646-2.76355l4.4742 4.33814z" fill="url(#i)"/><path d="m16.0593 8.04179h-8.79847c-1.18568-.01001-2.14219-.97125-2.14219-2.15277 0-3.38435 4.0453-5.106565 6.46646-2.76355l4.4742 4.33814z" fill="url(#j)"/></g><path d="m24.8881 30.0418h-17.77619c-1.17107 0-2.11191-.9295-2.11191-2.0863v-12.9137h22v12.9137c0 1.147-.9408 2.0863-2.1119 2.0863z" fill="url(#k)"/><path d="m24.8881 30.0418h-17.77619c-1.17107 0-2.11191-.9295-2.11191-2.0863v-12.9137h22v12.9137c0 1.147-.9408 2.0863-2.1119 2.0863z" fill="url(#l)"/><path d="m24.8881 30.0418h-17.77619c-1.17107 0-2.11191-.9295-2.11191-2.0863v-12.9137h22v12.9137c0 1.147-.9408 2.0863-2.1119 2.0863z" fill="url(#m)"/><path d="m24.8881 30.0418h-17.77619c-1.17107 0-2.11191-.9295-2.11191-2.0863v-12.9137h22v12.9137c0 1.147-.9408 2.0863-2.1119 2.0863z" fill="url(#n)"/><path d="m24.8881 30.0418h-17.77619c-1.17107 0-2.11191-.9295-2.11191-2.0863v-12.9137h22v12.9137c0 1.147-.9408 2.0863-2.1119 2.0863z" fill="url(#o)"/><path d="m24.8881 30.0418h-17.77619c-1.17107 0-2.11191-.9295-2.11191-2.0863v-12.9137h22v12.9137c0 1.147-.9408 2.0863-2.1119 2.0863z" fill="url(#p)"/><path d="m27.6615 8.04181h-23.32305c-.73915 0-1.33845.60085-1.33845 1.34191v4.31618c0 .7411.5993 1.3419 1.33845 1.3419h23.32305c.7392 0 1.3385-.6008 1.3385-1.3419v-4.31618c0-.74106-.5993-1.34191-1.3385-1.34191z" fill="url(#q)"/><path d="m27.6615 8.04181h-23.32305c-.73915 0-1.33845.60085-1.33845 1.34191v4.31618c0 .7411.5993 1.3419 1.33845 1.3419h23.32305c.7392 0 1.3385-.6008 1.3385-1.3419v-4.31618c0-.74106-.5993-1.34191-1.3385-1.34191z" fill="url(#r)"/><path d="m27.6615 8.04181h-23.32305c-.73915 0-1.33845.60085-1.33845 1.34191v4.31618c0 .7411.5993 1.3419 1.33845 1.3419h23.32305c.7392 0 1.3385-.6008 1.3385-1.3419v-4.31618c0-.74106-.5993-1.34191-1.3385-1.34191z" fill="url(#s)"/><path d="m27.6615 8.04181h-23.32305c-.73915 0-1.33845.60085-1.33845 1.34191v4.31618c0 .7411.5993 1.3419 1.33845 1.3419h23.32305c.7392 0 1.3385-.6008 1.3385-1.3419v-4.31618c0-.74106-.5993-1.34191-1.3385-1.34191z" fill="url(#t)"/><path d="m27.6615 8.04181h-23.32305c-.73915 0-1.33845.60085-1.33845 1.34191v4.31618c0 .7411.5993 1.3419 1.33845 1.3419h23.32305c.7392 0 1.3385-.6008 1.3385-1.3419v-4.31618c0-.74106-.5993-1.34191-1.3385-1.34191z" fill="url(#u)"/><path d="m27.6615 8.04181h-23.32305c-.73915 0-1.33845.60085-1.33845 1.34191v4.31618c0 .7411.5993 1.3419 1.33845 1.3419h23.32305c.7392 0 1.3385-.6008 1.3385-1.3419v-4.31618c0-.74106-.5993-1.34191-1.3385-1.34191z" fill="url(#v)"/><g filter="url(#c)"><path d="m16.0049 3.04181c-1.6606 0-3.0049 1.36912-3.0049 3.0604v23.93959h5.9999v-23.93959c.0099-1.69128-1.3344-3.0604-2.995-3.0604z" fill="url(#w)"/><path d="m16.0049 3.04181c-1.6606 0-3.0049 1.36912-3.0049 3.0604v23.93959h5.9999v-23.93959c.0099-1.69128-1.3344-3.0604-2.995-3.0604z" fill="url(#x)"/></g><g filter="url(#d)"><path d="m24.0118 3.04181c.7813.20833 2.3 1.11875 2.125 3.09375" stroke="#fb5157" stroke-linecap="round" stroke-width=".5"/></g><g filter="url(#e)"><path d="m9.66821 2.87152c.1548-.0129.61149.09287 1.19969.61919s1.4319 1.40609 1.7802 1.78019" stroke="#fb5157" stroke-linecap="round" stroke-width=".5"/></g></svg>

<svg width="32" height="32" viewBox="0 0 32 32" fill="none" xmlns="http://www.w3.org/2000/svg">
<path d="M24.8881 30H7.11191C5.94084 30 5 29.0705 5 27.9136V15L15.8771 11.9399L27 15V27.9136C27 29.0606 26.0592 30 24.8881 30Z" fill="#FCD53F"/>
<path d="M27 5.84722C27 2.46288 22.9547 0.740668 20.5335 3.08368L16 7.47933L11.4665 3.08368C9.04531 0.730655 5 2.46288 5 5.84722C5 7.03876 5.95655 8 7.14223 8L16 10.1696L24.8578 8C26.0435 7.98999 27 7.02874 27 5.84722Z" fill="#F8312F"/>
<path d="M27.6615 8H4.33845C3.5993 8 3 8.60086 3 9.34192V13.6581C3 14.3991 3.5993 15 4.33845 15H27.6615C28.4007 15 29 14.3991 29 13.6581V9.34192C29 8.60086 28.4007 8 27.6615 8Z" fill="#FFB02E"/>
<path d="M16.0049 3C14.3443 3 13 4.36912 13 6.0604V30H18.9999V6.0604C19.0098 4.36912 17.6655 3 16.0049 3Z" fill="#CA0B4A"/>
</svg>
